X: 17
T:Calliope House - E Version
M:6/8
L:1/8
Q:90
C:Dave Richardson
S:Transcribed From Alisdair Fraser "The Road North" by S.C.
R:Jig
K:E
B2|:eBB gBB|fBB gBB|cff ~f2 e|fge c"4"ec|BcB ~B2G|B2 c e2 e|!
[1"(Slide)"{=g}g2 b gfe|f4 B2:|[2gb~g fec|e3 efg||b2 b gbb|fbb gbb|"(Sli
de)"{g}a3 gag|!
fgf ~fec|BcB ~B2 G|B2 c e2 e|[1"(Slide)"{=g}g2 b gfe|f3 efg:|[2gb~g fec|
e3 e3|]
